X:684
T:Dinky's Reel
C:Joe Buchanan's Scottish Tome - Page 214.1
I:214 1
Z:Carl Allison
R:Reel
L:1/8
M:4/4
K:Amix
ed | "A"cdBc "E"ABcd | "A"egfd "E"edBd | "G"gB B2 "D"gB"G"aB | "G"gB B2 "G"gfed |
"A"cdBc "Em"ABcd | "A"egfd "D7"edBd | "G"ggge "D"dfed | "A"cd"D7"Bc "A"A2 :|
ce | "A"aA A2 "E"aAgA | "A"aA A2 "E"agef | "G"gB B2 "D"gBaB | "G"gB B2 "G7"gefg |
"A"aA A2 "E"aAgA | "A"aA A2 "E"agef | "G"ggge "D"dfed | "A"dBc "E7"A2 "A"ce |
"A"aA A2 "E"aAgA | "A"aA A2 "E"agef | "G"gB B2 "D"gBaB | "G"gB B2 "G7"gefg |
"A"aaaf "G"ggge | "F#m"fffd "Em"eeef | "G"ggge "D"dfed | "A"cd"E7"Bc "A"A2 |]
W:Errata: Added "A" chord to resolve each part.

